X:12
T:Vipadvardhaniya
M:4/4
L:1/8
Q:1/4=121
K:Em
|: E,2 B,E G2 FE | B,,2 F,B, D2 CB, | C,2 G,C E2 DC | A,,2 E,A, C2 B,A, :|
K:G
| G2 BD' g2 d'b | d2 fa d'2 af | e2 gb e'2 bg | c2 eg c'2 ge |
